X:1
T:Christmas Morning
T:Christmas Morning
T:Gideon Froelich
T:Marian Froelich, 1881
T:Public Domain Courtesy of the Cyber Hymnal™
T:Public Domain Courtesy of the Cyber Hymnal™
C:Gideon Froelich
Z:Public Domain
Z:Courtesy of the Cyber Hymnal™
%%score ( 1 2 ) ( 3 4 )
L:1/8
Q:1/4=110
M:9/8
K:Bb
V:1 treble 
V:2 treble 
V:3 bass 
V:4 bass 
V:1
 ([DF][EG])[FA] | [DB]3 [DF]3 ([Fd][Ec])[DB] | [FA]3 [EG]3 ([EG][FA])[EG] | [DF]3 [FB]3 (Bc)[_Ed] | %4
w: 1.~Glo- * ry’s|kiss a- woke * the|morn- ing, Which * be-|held the Sav- * ior’s|
w: 2.~Ol- * ive,|myr- tle, pine * and|lau- rel, Weave * in|beau- teous gar- * lands|
 [Fc]3- [Fc]2 z (FG)[EF] | [DB]3 [DF]3 (BA)[FB] | [Ec]3 [EG]3 ([Ge][Fd])[Ec] | %7
w: birth, * And * with|na- ture’s ros- * y|dawn- ing, Peace, * good-|
w: fair; * While * our|voic- es raise * a|chor- al, Him * our|
 [DB]3 [FB]3 (AG)[EA] | [DB]3- [DB]2 z (AG)[CF] | [CF]3 [C=E]3 ([EB][FA])[EG] | %10
w: will, was born * on|earth. * Heav- * en’s|door rolled wide * a-|
w: love and thanks * to|bear. * But * how|poor the gifts * we|
 [Fd]3 [Fc]3 (FG)[FA] | [FB]3 [DG]3 (=ED)[CE] | [CF]3- [CF]2 z (FG)[EF] | %13
w: sun- der, Through * the|gate of pearl * and|gem, * An- * gels|
w: of- fer, Have * we|aught to give * but|them? * Yea, * our|
 [DB]3 [DF]3 ([Fd][Ec])[DB] | [FA]3 [EG]3 ([Ge][Fd])[Ec] | [DB]3 [FB]3 (AG)[EA] | [DB]3- [DB]2 z || %17
w: thronged to see * this|won- der, Earth * held|Heav- en’s di- * a-|dem. *|
w: hearts we hum- * bly|prof- fer, Make * them|now a Beth- * le-|hem. *|
"^Refrain" (cd)[Fe] | !>![Fd]3 [FB]3 (cd)[Fe] | !>![Fd]3 [FB]3 (BA)[FB] | [Ec]3 [EG]3 (Gc)[_EB] | %21
w: Ring, * O|bells, your loud- * est,|sweet- est, And * ye|child- ren, shout * with|
w: ||||
 [FA]6 (AG)[FA] | [FB]3 [Fd]3 (Bc)[Fd] | [Ee]3 !fermata![EG]3 (cd)[Ge] | [Fd]3 [FB]3 (AG)[EA] | %25
w: glee; Love * the|great- est, the * com-|plet- est, Christ- * mas|gave to you * and|
w: ||||
 [DB]6 (FG)F | c3- [Ec]2 z (FG)F | d3- [Fd]2 z (de)[Fd] | c3 [_EG]2 z (cd)[Ec] | B3 [DF]2 z (DE)D | %30
w: me. Ring, * O|bells, ring, O * bells,|* Ring your * loud-|est, ring your * sweet-|est, Ring, O * bells,|
w: |||||
 c3- [Cc]2 z (DE)D | B3- [DB]2 z (cB)[EG] | [DF]3 [FB]3 (AG)[EA] | B3- [DB]3 |] %34
w: ring, * O * bells,|* Ring your * sweet-|est Christ- mas * bells!||
w: ||||
V:2
 x3 | x9 | x9 | x6 =E2 x | x6 E2 x | x6 F2 x | x9 | x6 E2 x | x6 C2 x | x9 | x6 F2 x | x6 C2 x | %12
 x6 E2 x | x9 | x9 | x6 E2 x | x6 || F2 x | x6 F2 x | x6 F2 x | x6 =E2 x | x6 F2 x | x6 F2 x | %23
 x6 G2 x | x6 E2 x | x9 | E2 E x6 | (F2 F x F2) x3 | (=E2 E) x _E2 x3 | (D2 D) x6 | C2 C x6 | %31
 (D2 D x E2) x3 | x6 E2 x | (D2 E) x3 |] %34
V:3
 [B,,B,]2 [B,,B,] | [B,,F,]3 [B,,B,]3 [B,,B,][C,A,][D,B,] | [E,B,]3 [E,B,]3 [E,B,]2 [E,B,] | %3
w: ~ ~|~ ~ ~ ~ ~|~ ~ ~ ~|
 [B,,B,]3 [D,B,]3 [C,B,]2 [C,B,] | [F,A,]3- [F,A,]2 z [F,A,]2 [F,A,] | %5
w: ~ ~ ~ ~|~ * ~ ~|
 [B,,B,]3 [B,,B,]3 [D,B,]2 [D,B,] | [E,G,]3 [E,B,]3 [E,B,]2 [E,B,] | [F,B,]3 [F,D]3 [F,C]2 [F,C] | %8
w: ~ ~ ~ ~|~ ~ ~ ~|~ ~ ~ ~|
 [B,,B,]3- [B,,B,]2 z (CB,)[F,A,] | [G,B,]3 [G,B,]3 (G,A,)[C,B,] | [F,B,]3 [F,A,]3 (A,B,)[F,C] | %11
w: ~ * ~ * ~|~ ~ ~ * ~|~ ~ ~ * ~|
 [B,,D]3 [B,,B,]3 (G,F,)[C,G,] | [F,A,]3- [F,A,]2 z [F,A,]2 [F,A,] | %13
w: ~ ~ ~ * ~|~ * ~ ~|
 [B,,B,]3 [B,,B,]3 ([B,,B,][C,A,])[D,B,] | [E,B,]3 [E,B,]3 [E,B,]2 [E,B,] | %15
w: ~ ~ ~ * ~|~ ~ ~ ~|
 [F,B,]3 [F,D]3 [F,C]2 [F,C] | [B,,B,]3- [B,,B,]2 z || (A,B,)[F,C] | B,3 [B,D]3 (A,B,)[F,C] | %19
w: ~ ~ ~ ~|~ *|~ * ~|~ ~ ~ * ~|
 [B,,B,]3 [B,,D]3 [D,B,]2 [D,B,] | [E,G,]3 [E,B,]3 [C,C]2 [C,C] | [F,C]6 [E,C]2 [E,C] | %22
w: ~ ~ ~ ~|~ ~ ~ ~|~ ~ ~|
 [D,B,]3 [B,,B,]3 [_A,D]2 [B,C] | [G,B,]3 !fermata![E,B,]3 [E,B,]2 [E,B,] | %24
w: ~ ~ ~ ~|~ ~ ~ ~|
 [F,B,]3 [F,D]3 [F,C]2 [F,C] | [B,,B,]6 z3 | [F,A,]2 [F,A,] [F,A,]2 z4 | %27
w: ~ ~ ~ ~|~|Christ- mas bells,|
 B,2 _B, _B,2 z [G,=B,]2 [G,B,] | [C,C]2 [C,G,] [C,C]2 z [F,A,]2 [F,A,] | %29
w: Christ- mas bells, Ring your|loud- est bells, Ring your|
 [B,,B,]2 [B,,F,] [B,,B,]2 z4 | [^F,A,]2 [F,A,] [F,A,]2 z4 | G,2 G, G,2 z [E,G,]2 [E,B,] | %32
w: sweet- test bells,|Christ- mas bells,|Christ- mas bells, ~ ~|
 [F,B,]3 [F,D]3 [F,C]2 [F,C] | B,2 G, [B,,F,]3 |] %34
w: ~ ~ ~ ~|bells, O~ring! *|
V:4
 x3 | x9 | x9 | x9 | x9 | x9 | x9 | x9 | x6 F,2 x | x6 C,2 x | x6 F,2 x | x6 C,2 x | x9 | x9 | x9 | %15
 x9 | x6 || F,2 x | B,3 F,2 x4 | x9 | x9 | x9 | x9 | x9 | x9 | x9 | x9 | =B,2 =B, =B,2 x4 | x9 | %29
 x9 | x9 | G,2 G, G,2 x4 | x9 | B,,3- x3 |] %34

